packages/icons/svg/Inline/Pencil.svg

<svg width="12" height="12" viewBox="0 0 12 12" fill="none" xmlns="http://www.w3.org/2000/svg">
<path d="M7.97401 1.19289C8.36453 0.802363 8.9977 0.802363 9.38822 1.19289L10.8024 2.6071C11.193 2.99762 11.193 3.63079 10.8024 4.02131L9.74177 5.08197L6.91335 2.25355L7.97401 1.19289Z" fill="#858585"/>
<path d="M6.20624 2.96065L1.61005 7.55685L1.05003 10.3569C0.980055 10.7068 1.28851 11.0153 1.63838 10.9453L4.43847 10.3853L9.03467 5.78908L6.20624 2.96065Z" fill="#858585"/>
</svg>

<svg width="12" height="12" fill="none" xmlns="http://www.w3.org/2000/svg" viewBox="0 0 12 12"><path d="M7.974 1.193a1 1 0 011.414 0l1.414 1.414a1 1 0 010 1.414l-1.06 1.061-2.829-2.828 1.061-1.061zM6.206 2.96L1.61 7.558l-.56 2.8a.5.5 0 00.588.588l2.8-.56L9.035 5.79 6.206 2.961z" fill="currentColor"></path></svg>
